symbols-de/shields/motorway_9x1.svg

<?xml version="1.0" encoding="UTF-8" standalone="no"?>
<svg
   xmlns:dc="http://purl.org/dc/elements/1.1/"
   xmlns:cc="http://creativecommons.org/ns#"
   xmlns:rdf="http://www.w3.org/1999/02/22-rdf-syntax-ns#"
   xmlns:svg="http://www.w3.org/2000/svg"
   xmlns="http://www.w3.org/2000/svg"
   version="1.1"
   id="svg2"
   viewBox="0 0 63.0 15.0"
   height="100%"
   width="100%">
  <metadata
     id="metadata9">
    <rdf:RDF>
      <cc:Work
         rdf:about="">
        <dc:format>image/svg+xml</dc:format>
        <dc:type
           rdf:resource="http://purl.org/dc/dcmitype/StillImage" />
        <dc:title></dc:title>
      </cc:Work>
    </rdf:RDF>
  </metadata>
  <defs
     id="defs7" />
  <path
     style="fill:#365eaf;fill-opacity:1;stroke:#0528a2;stroke-width:1;stroke-miterlimit:4;stroke-dasharray:none;stroke-opacity:1"
     id="path6"
     d="m 0.500044,7.5000355 0,-4.8363432 q 0,-0.2545459 0.999998,-0.3818155 L 30.833326,0.51279485 q 0,-0.01275 0.666671,-0.01275 0.666663,0 0.666663,0.01275 L 61.499951,2.2818768 q 1.000005,0.1272696 1.000005,0.3818155 l 0,9.6726887 q 0,0.254547 -1.000005,0.381815 L 32.16666,14.487274 q 0,0.01268 -0.666663,0.01268 -0.666671,0 -0.666671,-0.01268 L 1.500042,12.718196 Q 0.500044,12.590928 0.500044,12.336381 Z" />
</svg>

<?xml version="1.0" encoding="UTF-8"?>
<svg xmlns="http://www.w3.org/2000/svg" xmlns:xlink="http://www.w3.org/1999/xlink" width="65pt" height="18pt" viewBox="0 0 65 18" version="1.1">
<g id="surface1">
<path style="fill-rule:nonzero;fill:rgb(21.176471%,36.862745%,68.627451%);fill-opacity:1;stroke-width:1;stroke-linecap:butt;stroke-linejoin:miter;stroke:rgb(1.960784%,15.686275%,63.529412%);stroke-opacity:1;stroke-miterlimit:4;" d="M 0.49976 7.5 L 0.49976 2.66276 C 0.49976 2.49349 0.832933 2.366536 1.499279 2.281901 L 30.833654 0.514323 C 30.833654 0.504557 31.057031 0.501302 31.5 0.501302 C 31.942969 0.501302 32.166346 0.504557 32.166346 0.514323 L 61.500721 2.281901 C 62.167067 2.366536 62.50024 2.49349 62.50024 2.66276 L 62.50024 12.33724 C 62.50024 12.50651 62.167067 12.633464 61.500721 12.718099 L 32.166346 14.485677 C 32.166346 14.495443 31.942969 14.498698 31.5 14.498698 C 31.057031 14.498698 30.833654 14.495443 30.833654 14.485677 L 1.499279 12.718099 C 0.832933 12.633464 0.49976 12.50651 0.49976 12.33724 Z M 0.49976 7.5 " transform="matrix(1.031746,0,0,1.2,0,0)"/>
</g>
</svg>
